img/services_hover.svg

<svg width="92" height="76" viewBox="0 0 92 76" fill="none" xmlns="http://www.w3.org/2000/svg">
<path d="M70.3061 75.096L6.92765 58.1138C5.88678 57.8367 4.90851 57.3655 4.0488 56.7271C3.1891 56.0887 2.46483 55.2956 1.91746 54.3931C1.37008 53.4907 1.01033 52.4967 0.858794 51.468C0.707259 50.4393 0.76691 49.3961 1.03434 48.3981L12.2328 6.60494C12.5903 5.27065 13.3074 4.05789 14.3122 3.08844C15.317 2.119 16.5741 1.427 17.9572 1.08193C19.3403 0.736859 20.8008 0.750869 22.192 1.12255C23.5831 1.49423 24.856 2.2105 25.8829 3.19944L49.5079 25.9866L81.3201 18.0538C82.7038 17.7108 84.1643 17.7269 85.555 18.1006C86.9456 18.4743 88.2174 19.1924 89.2427 20.1828C90.268 21.1732 91.0106 22.401 91.3961 23.743C91.7816 25.085 91.7962 26.4938 91.4387 27.8281L80.2403 69.6212C79.7014 71.6323 78.3526 73.3384 76.4901 74.3648C74.6276 75.3913 72.4035 75.6542 70.3061 75.096Z" fill="#E9D7FE"/>
</svg>

<svg width="92" height="76" fill="none" xmlns="http://www.w3.org/2000/svg"><path d="M70.306 75.096 6.928 58.114a8.498 8.498 0 0 1-2.88-1.387 8.224 8.224 0 0 1-2.13-2.334 7.847 7.847 0 0 1-1.06-2.925 7.582 7.582 0 0 1 .176-3.07L12.233 6.605a7.628 7.628 0 0 1 2.08-3.517 8.048 8.048 0 0 1 3.644-2.006 8.477 8.477 0 0 1 4.235.04 8.478 8.478 0 0 1 3.69 2.077l23.626 22.788 31.812-7.933a8.478 8.478 0 0 1 4.235.047 8.477 8.477 0 0 1 3.688 2.082 8.048 8.048 0 0 1 2.153 3.56c.386 1.342.4 2.75.043 4.085L80.24 69.621c-.539 2.011-1.887 3.717-3.75 4.744-1.862 1.026-4.087 1.29-6.184.731Z" fill="#E9D7FE"/></svg>
